icons/lines/key-square.svg

<svg xmlns="http://www.w3.org/2000/svg" width="24" height="24" viewBox="0 0 24 24" fill="none" stroke="currentColor" stroke-width="2" stroke-linecap="round" stroke-linejoin="round" >
  <path d="M9 22H15C20 22 22 20 22 15V9C22 4 20 2 15 2H9C4 2 2 4 2 9V15C2 20 4 22 9 22Z"/>
  <path d="M16.2802 13.61C15.1502 14.74 13.5302 15.09 12.1002 14.64L9.5102 17.22C9.3302 17.41 8.9602 17.53 8.6902 17.49L7.4902 17.33C7.0902 17.28 6.7302 16.9 6.6702 16.51L6.5102 15.31C6.4702 15.05 6.6002 14.68 6.7802 14.49L9.3602 11.91C8.9202 10.48 9.2602 8.86001 10.3902 7.73001C12.0102 6.11001 14.6502 6.11001 16.2802 7.73001C17.9002 9.34001 17.9002 11.98 16.2802 13.61Z" stroke-miterlimit="10"/>
  <path d="M10.4501 16.28L9.6001 15.42" stroke-miterlimit="10"/>
  <path d="M13.3944 10.7H13.4034"/>
  </svg>

<svg xmlns="http://www.w3.org/2000/svg" width="24" height="24" viewBox="0 0 24 24" fill="none" stroke="currentColor" stroke-width="2" stroke-linecap="round" stroke-linejoin="round">
  <path d="m10.45 16.28-.85-.86" />
  <path d="M13.394 10.7h.01" />
  <path d="M15 22c5 0 7-2 7-7V9c0-5-2-7-7-7H9C4 2 2 4 2 9v6c0 5 2 7 7 7z" />
  <path d="M9.36 11.91a4.17 4.17 0 1 1 2.74 2.73l-2.59 2.58a1 1 0 0 1-.82.27l-1.2-.16c-.4-.05-.76-.43-.82-.82l-.16-1.2a1.12 1.12 0 0 1 .27-.82z" />
</svg>
